icons/crosshair.svg

<svg width="24" height="24" viewBox="0 0 24 24" fill="none" xmlns="http://www.w3.org/2000/svg">
<path fill-rule="evenodd" clip-rule="evenodd" d="M12 2C12.5523 2 13 2.44772 13 3V4.06189C16.6187 4.51314 19.4869 7.38128 19.9381 11H21C21.5523 11 22 11.4477 22 12C22 12.5523 21.5523 13 21 13H19.9381C19.4869 16.6187 16.6187 19.4869 13 19.9381V21C13 21.5523 12.5523 22 12 22C11.4477 22 11 21.5523 11 21V19.9381C7.38128 19.4869 4.51314 16.6187 4.06189 13H3C2.44772 13 2 12.5523 2 12C2 11.4477 2.44772 11 3 11H4.06189C4.51314 7.38128 7.38128 4.51314 11 4.06189V3C11 2.44772 11.4477 2 12 2ZM11 6.08296C8.4875 6.50448 6.50448 8.4875 6.08296 11H7C7.55228 11 8 11.4477 8 12C8 12.5523 7.55228 13 7 13H6.08296C6.50478 15.5143 8.49034 17.4984 11.0054 17.9179L11.01 16.995C11.0128 16.4427 11.4627 15.9973 12.015 16C12.5673 16.0028 13.0127 16.4527 13.01 17.005L13.0054 17.9161C15.5154 17.4927 17.4958 15.5107 17.917 13H17C16.4477 13 16 12.5523 16 12C16 11.4477 16.4477 11 17 11H17.917C17.4955 8.4875 15.5125 6.50448 13 6.08296V7C13 7.55228 12.5523 8 12 8C11.4477 8 11 7.55228 11 7V6.08296Z" fill="black"/>
</svg>

<svg
  width="24"
  height="24"
  viewBox="0 0 24 24"
  xmlns="http://www.w3.org/2000/svg"
>
  <path
    fill-rule="evenodd"
    clip-rule="evenodd"
    d="M12 2a1 1 0 0 1 1 1v1.062A8.004 8.004 0 0 1 19.938 11H21a1 1 0 1 1 0 2h-1.062A8.004 8.004 0 0 1 13 19.938V21a1 1 0 1 1-2 0v-1.062A8.004 8.004 0 0 1 4.062 13H3a1 1 0 1 1 0-2h1.062A8.004 8.004 0 0 1 11 4.062V3a1 1 0 0 1 1-1zm-1 4.083A6.005 6.005 0 0 0 6.083 11H7a1 1 0 1 1 0 2h-.917a6.005 6.005 0 0 0 4.922 4.918l.005-.923a1 1 0 0 1 2 .01l-.005.911A6.005 6.005 0 0 0 17.917 13H17a1 1 0 1 1 0-2h.917A6.005 6.005 0 0 0 13 6.083V7a1 1 0 1 1-2 0v-.917z"
  />
</svg>
